src/images/icons/vk-icon.svg

<svg width="35" height="36" viewBox="0 0 35 36" fill="none" xmlns="http://www.w3.org/2000/svg">
<g id="vk">
<circle id="Ellipse 17" cx="17.5" cy="18" r="17.5" fill="#0077FF"/>
<path id="Vector" fill-rule="evenodd" clip-rule="evenodd" d="M26.9075 13.5193C27.0599 13.0425 26.9075 12.6959 26.2334 12.6959H23.9921C23.4267 12.6959 23.1656 12.9994 23.0133 13.324C23.0133 13.324 21.8603 16.097 20.2502 17.8947C19.728 18.4146 19.4888 18.588 19.2059 18.588C19.0535 18.588 18.8575 18.4146 18.8575 17.9383V13.4969C18.8575 12.9339 18.6837 12.6739 18.2048 12.6739H14.6799C14.3315 12.6739 14.1141 12.9339 14.1141 13.1938C14.1141 13.7353 14.9191 13.8655 15.006 15.3817V18.6763C15.006 19.3911 14.8776 19.5217 14.5926 19.5217C13.8312 19.5217 11.9818 16.7272 10.8725 13.543C10.6568 12.9123 10.4376 12.6739 9.87183 12.6739H7.60905C6.95637 12.6739 6.84766 12.977 6.84766 13.302C6.84766 13.8871 7.60905 16.8329 10.394 20.7319C12.2433 23.395 14.8759 24.8262 17.2474 24.8262C18.6837 24.8262 18.8575 24.5012 18.8575 23.9597V21.9451C18.8575 21.2954 18.988 21.1872 19.4451 21.1872C19.7712 21.1872 20.3589 21.3601 21.6861 22.6383C23.2088 24.1546 23.4699 24.8478 24.3186 24.8478H26.5596C27.2123 24.8478 27.517 24.5227 27.3428 23.8946C27.1472 23.2665 26.4072 22.3568 25.4498 21.2738C24.9277 20.6677 24.1444 19.996 23.9052 19.6709C23.5791 19.2377 23.6659 19.0643 23.9052 18.6746C23.8834 18.6746 26.6251 14.8187 26.9075 13.5176" fill="white"/>
</g>
</svg>

<svg width="35" height="36" fill="none" xmlns="http://www.w3.org/2000/svg"><circle cx="17.5" cy="18" r="17.5" fill="#07F"/><path fill-rule="evenodd" clip-rule="evenodd" d="M26.907 13.52c.153-.477 0-.824-.674-.824h-2.24c-.566 0-.827.303-.98.628 0 0-1.153 2.773-2.763 4.57-.522.52-.761.694-1.044.694-.152 0-.348-.173-.348-.65v-4.441c0-.563-.174-.823-.653-.823H14.68c-.348 0-.566.26-.566.52 0 .541.805.671.892 2.188v3.294c0 .715-.128.846-.413.846-.762 0-2.611-2.795-3.72-5.979-.216-.63-.435-.87-1.001-.87H7.609c-.653 0-.761.304-.761.629 0 .585.761 3.53 3.546 7.43 1.85 2.663 4.482 4.094 6.853 4.094 1.437 0 1.61-.325 1.61-.866v-2.015c0-.65.131-.758.588-.758.326 0 .914.173 2.241 1.451 1.523 1.517 1.784 2.21 2.633 2.21h2.24c.653 0 .958-.325.784-.953-.196-.628-.936-1.538-1.893-2.621-.522-.606-1.306-1.278-1.545-1.603-.326-.433-.24-.607 0-.996-.022 0 2.72-3.856 3.002-5.157" fill="#fff"/></svg>
